img/logo.svg

<svg width="48" height="51" viewBox="0 0 48 51" fill="none" xmlns="http://www.w3.org/2000/svg">
<path d="M8.40745 14.8147C6.94915 14.8147 5.62713 14.5009 4.44141 13.8734C3.26932 13.2323 2.34255 12.3524 1.6611 11.2338C0.99328 10.1015 0.65937 8.82606 0.65937 7.40734C0.65937 5.98862 0.99328 4.71996 1.6611 3.60136C2.34255 2.46911 3.26932 1.58924 4.44141 0.961727C5.62713 0.320576 6.95596 0 8.42789 0C9.66813 0 10.7857 0.218264 11.7806 0.654793C12.7892 1.09132 13.6342 1.71883 14.3156 2.53732L12.1895 4.5017C11.2218 3.3831 10.0225 2.82379 8.59144 2.82379C7.70555 2.82379 6.91507 3.0216 6.22 3.4172C5.52492 3.79916 4.97976 4.338 4.58452 5.03372C4.2029 5.72944 4.0121 6.52064 4.0121 7.40734C4.0121 8.29404 4.2029 9.08525 4.58452 9.78097C4.97976 10.4767 5.52492 11.0223 6.22 11.4179C6.91507 11.7999 7.70555 11.9909 8.59144 11.9909C10.0225 11.9909 11.2218 11.4248 12.1895 10.2925L14.3156 12.2569C13.6342 13.089 12.7892 13.7234 11.7806 14.1599C10.7721 14.5964 9.64769 14.8147 8.40745 14.8147Z" fill="#7583AA"/>
<path d="M25.0291 14.8147C23.5436 14.8147 22.2011 14.4941 21.0018 13.853C19.816 13.2118 18.8825 12.3319 18.201 11.2133C17.5332 10.0811 17.1993 8.81242 17.1993 7.40734C17.1993 6.00227 17.5332 4.74043 18.201 3.62182C18.8825 2.48958 19.816 1.60288 21.0018 0.961727C22.2011 0.320576 23.5436 0 25.0291 0C26.5147 0 27.8503 0.320576 29.036 0.961727C30.2218 1.60288 31.1553 2.48958 31.8368 3.62182C32.5182 4.74043 32.859 6.00227 32.859 7.40734C32.859 8.81242 32.5182 10.0811 31.8368 11.2133C31.1553 12.3319 30.2218 13.2118 29.036 13.853C27.8503 14.4941 26.5147 14.8147 25.0291 14.8147Z" fill="#7583AA"/>
<path d="M38.6598 2.90564V6.69116H45.8989V9.35126H38.6598V14.5691H35.348V0.245547H46.7779V2.90564H38.6598Z" fill="#7583AA"/>
<path d="M7.82985 33.0301C6.34429 33.0301 5.00184 32.7095 3.80249 32.0684C2.61676 31.4272 1.68318 30.5474 1.00173 29.4288C0.33391 28.2965 0 27.0278 0 25.6228C0 24.2177 0.33391 22.9559 1.00173 21.8373C1.68318 20.705 2.61676 19.8183 3.80249 19.1772C5.00184 18.536 6.34429 18.2154 7.82985 18.2154C9.31541 18.2154 10.6511 18.536 11.8368 19.1772C13.0225 19.8183 13.9561 20.705 14.6375 21.8373C15.319 22.9559 15.6597 24.2177 15.6597 25.6228C15.6597 27.0278 15.319 28.2965 14.6375 29.4288C13.9561 30.5474 13.0225 31.4272 11.8368 32.0684C10.6511 32.7095 9.31541 33.0301 7.82985 33.0301Z" fill="#7583AA"/>
<path d="M24.5066 33.0301C22.4623 33.0301 20.8677 32.464 19.7228 31.3317C18.5916 30.1995 18.026 28.583 18.026 26.4822V18.461H21.3379V26.3594C21.3379 28.924 22.4009 30.2063 24.5271 30.2063C25.5629 30.2063 26.3533 29.8994 26.8985 29.2855C27.4437 28.658 27.7162 27.6826 27.7162 26.3594V18.461H30.9872V26.4822C30.9872 28.583 30.4148 30.1995 29.2699 31.3317C28.1387 32.464 26.551 33.0301 24.5066 33.0301Z" fill="#7583AA"/>
<path d="M48 18.461V32.7846H45.281L38.1462 24.0881V32.7846H34.8753V18.461H37.6147L44.729 27.1574V18.461H48Z" fill="#7583AA"/>
<path d="M1.16958 36.6764H7.6706C9.22431 36.6764 10.594 36.9765 11.7797 37.5767C12.9791 38.1633 13.9059 38.9955 14.5601 40.0731C15.2279 41.1508 15.5618 42.4058 15.5618 43.8382C15.5618 45.2706 15.2279 46.5256 14.5601 47.6033C13.9059 48.6809 12.9791 49.5199 11.7797 50.1201C10.594 50.7067 9.22431 51 7.6706 51H1.16958V36.6764Z" fill="#7583AA"/>
<path d="M30.9859 48.3399V51H18.0594V36.6764H30.7202V39.3365H21.3508V42.4468H29.8411V45.025H21.3508V48.3399H30.9859Z" fill="#7583AA"/>
<path d="M43.9696 51L41.2097 47.0099H41.0462H38.1637V51H34.8518V36.6764H41.0462C42.3137 36.6764 43.4108 36.8878 44.3376 37.3107C45.278 37.7336 46.0003 38.3339 46.5046 39.1114C47.0089 39.889 47.261 40.8098 47.261 41.8738C47.261 42.9379 47.0021 43.8587 46.4842 44.6362C45.9799 45.4002 45.2575 45.9867 44.3171 46.396L47.5268 51H43.9696Z" fill="#7583AA"/>
</svg>

<svg width="48" height="51" viewBox="0 0 48 51" fill="none" xmlns="http://www.w3.org/2000/svg"><path d="M8.407 14.815c-1.458 0-2.78-.314-3.966-.942a7.29 7.29 0 01-2.78-2.64C.993 10.102.66 8.827.66 7.408c0-1.418.334-2.687 1.002-3.806a7.093 7.093 0 012.78-2.64C5.627.322 6.956 0 8.428 0c1.24 0 2.358.218 3.353.655a6.717 6.717 0 012.535 1.882l-2.127 1.965c-.967-1.119-2.166-1.678-3.598-1.678-.885 0-1.676.198-2.371.593-.695.382-1.24.921-1.635 1.617-.382.695-.573 1.487-.573 2.373 0 .887.19 1.678.573 2.374.395.696.94 1.241 1.635 1.637.695.382 1.486.573 2.371.573 1.432 0 2.63-.566 3.599-1.698l2.126 1.964a6.627 6.627 0 01-2.535 1.903c-1.009.436-2.133.655-3.374.655zM25.03 14.815c-1.486 0-2.829-.32-4.028-.962a7.251 7.251 0 01-2.801-2.64c-.668-1.132-1.002-2.4-1.002-3.806 0-1.405.334-2.667 1.002-3.785a7.203 7.203 0 012.8-2.66C22.202.32 23.545 0 25.03 0c1.486 0 2.821.32 4.007.962a7.203 7.203 0 012.8 2.66c.682 1.118 1.023 2.38 1.023 3.785 0 1.405-.34 2.674-1.022 3.806a7.251 7.251 0 01-2.801 2.64c-1.186.641-2.521.962-4.007.962zM38.66 2.906V6.69h7.239v2.66h-7.24v5.218h-3.311V.246h11.43v2.66H38.66zM7.83 33.03c-1.486 0-2.828-.32-4.028-.962a7.251 7.251 0 01-2.8-2.64C.334 28.298 0 27.029 0 25.624c0-1.405.334-2.667 1.002-3.786a7.202 7.202 0 012.8-2.66c1.2-.641 2.542-.962 4.028-.962 1.485 0 2.821.321 4.007.962a7.202 7.202 0 012.8 2.66c.682 1.119 1.023 2.38 1.023 3.786 0 1.405-.341 2.674-1.023 3.806a7.25 7.25 0 01-2.8 2.64c-1.186.64-2.522.961-4.007.961zM24.507 33.03c-2.045 0-3.64-.566-4.784-1.698-1.131-1.133-1.697-2.749-1.697-4.85v-8.021h3.312v7.898c0 2.565 1.063 3.847 3.19 3.847 1.035 0 1.825-.307 2.37-.92.546-.628.818-1.603.818-2.927v-7.898h3.271v8.021c0 2.101-.572 3.718-1.717 4.85-1.131 1.132-2.719 1.698-4.763 1.698zM48 18.461v14.324h-2.719l-7.135-8.697v8.697h-3.27V18.46h2.739l7.114 8.696v-8.696H48zM1.17 36.676h6.5c1.554 0 2.924.3 4.11.9 1.2.587 2.126 1.42 2.78 2.497.668 1.078 1.002 2.333 1.002 3.765 0 1.433-.334 2.688-1.002 3.765-.654 1.078-1.58 1.917-2.78 2.517-1.186.587-2.556.88-4.11.88h-6.5V36.676zM30.986 48.34V51H18.059V36.676H30.72v2.66h-9.37v3.11h8.491v2.579h-8.49v3.315h9.635zM43.97 51l-2.76-3.99H38.164V51h-3.312V36.676h6.194c1.268 0 2.365.212 3.292.635.94.423 1.662 1.023 2.167 1.8.504.778.756 1.699.756 2.763 0 1.064-.259 1.985-.777 2.762-.504.764-1.227 1.35-2.167 1.76L47.527 51H43.97z" fill="#7583AA"/></svg>
